X: 1
T: Lansdowne Lass
L:1/8
M:C
S: Josie McDermott
N: Seamus Eagan debuted it at Kavanaugh's in Baltimore right after the Lansdowne Festival
Z: Frank R. Claudy <fclaudy:juno.com> irtrad-l 2000-07-26
R:Reel
K:D
DEFA GEFE | DEFA defa | g2 ed cAGE | FAGF EAFE |
D2 FA GEFE | DEFA defa | g2 ed cAGE | FAGE D3A :|
d2 fd adfa | bgaf gfed | c~A3 B~G3 | A~F3 EGFE |
defa g2 fg | az ge edcA | ABce dcAG | (3FGA GE D2A :|
